X: 60
T:Halfway House, The
M:C|
R:reel
Z:id:hn-reel-253
K:A
A2cA BcAF|~E3F ABce|~a3e faec|dBcA BdcB|
A2cA BcAF|~E3F ABce|~a3e faec|1 dBGB ~A3E:|2 dBGB ~A3F||
|:E2GE BEGE|A2cA eAcA|B2^dB fBdB|e2ge bege|
~a3e faec|defg a2ga|bgaf ge~e2|1 dBGB ~A3F:|2 dBGB ~A3E||

